X:10
T:Miss Stewart Dowally's Jigg
C:Robert Petrie
S:Petrie's Collection of Strathspey Reels and Country Dances &c., 1790
Z:Steve Wyrick , 3/5/04
N:Petrie's First Collection, page 5
L:1/8
M:6/8
R:Jig
K:Am
A/B/|Tc2A ABA|E2A ABc|TBAB GBc|dBG GAB |
     Tc2A ABA|EAB cde| def efd|cAA A2 :|
   B| cea cea|cea edc| Bdg Bdg|edc BAG |
      cea cea|cde def| edc dcB|cAA A2B |
      cea cea|cea edc| Bdg Bdg|edc BA^G|
      AcA BdB|cec def| edc dcB|cAA A2 |]
